1-js/09-classes/02-class-inheritance/class-inheritance-array-object.svg

<?xml version="1.0" encoding="UTF-8"?>
<svg width="233px" height="316px" viewBox="0 0 233 316" version="1.1" xmlns="http://www.w3.org/2000/svg" xmlns:xlink="http://www.w3.org/1999/xlink">
    <!-- Generator: sketchtool 61.2 (101010) - https://sketch.com -->
    <title>class-inheritance-array-object.svg</title>
    <desc>Created with sketchtool.</desc>
    <g id="inheritance" stroke="none" stroke-width="1" fill="none" fill-rule="evenodd">
        <g id="class-inheritance-array-object.svg">
            <rect id="Rectangle-1" stroke="#E8C48E" stroke-width="2" fill="#FFF9EB" x="13" y="158" width="219" height="58"></rect>
            <text id="slice:-function" font-family="PTMono-Regular, PT Mono" font-size="14" font-weight="normal" fill="#8A704D">
                <tspan x="23" y="181">slice: function</tspan>
                <tspan x="23" y="196">...</tspan>
            </text>
            <text id="Array.prototype" font-family="PTMono-Regular, PT Mono" font-size="14" font-weight="normal" fill="#8A704D">
                <tspan x="12" y="150">Array.prototype</tspan>
            </text>
            <text id="arr" font-family="PTMono-Regular, PT Mono" font-size="14" font-weight="normal" fill="#8A704D">
                <tspan x="12" y="267">arr</tspan>
            </text>
            <rect id="Rectangle-1" stroke="#E8C48E" stroke-width="2" fill="#FFF9EB" x="13" y="25" width="219" height="58"></rect>
            <text id="hasOwnProperty:-func" font-family="PTMono-Regular, PT Mono" font-size="14" font-weight="normal" fill="#8A704D">
                <tspan x="23" y="48">hasOwnProperty: function</tspan>
                <tspan x="23" y="63">...</tspan>
            </text>
            <text id="Object.prototype" font-family="PTMono-Regular, PT Mono" font-size="14" font-weight="normal" fill="#8A704D">
                <tspan x="12" y="17">Object.prototype</tspan>
            </text>
            <rect id="Rectangle-1" stroke="#E8C48E" stroke-width="2" fill="#FFF9EB" x="13" y="275" width="219" height="28"></rect>
            <path id="Line" d="M72.5,224.5 L79.5,238.5 L73.5,238.5 L73.5,266.5 L71.5,266.5 L71.5,238.5 L65.5,238.5 L72.5,224.5 Z" fill="#EE6B47" fill-rule="nonzero"></path>
            <path id="Line-2" d="M72.5,92.5 L79.5,106.5 L73.5,106.5 L73.5,134.5 L71.5,134.5 L71.5,106.5 L65.5,106.5 L72.5,92.5 Z" fill="#EE6B47" fill-rule="nonzero"></path>
            <text id="[1,-2,-3]" font-family="PTMono-Regular, PT Mono" font-size="14" font-weight="normal" fill="#8A704D">
                <tspan x="20" y="293">[1, 2, 3]</tspan>
            </text>
            <text id="[[Prototype]]" font-family="PTMono-Regular, PT Mono" font-size="14" font-weight="normal" fill="#EE6B47">
                <tspan x="86" y="115">[[Prototype]]</tspan>
            </text>
            <text id="[[Prototype]]-Copy" font-family="PTMono-Regular, PT Mono" font-size="14" font-weight="normal" fill="#EE6B47">
                <tspan x="86" y="247">[[Prototype]]</tspan>
            </text>
        </g>
    </g>
</svg>

<svg xmlns="http://www.w3.org/2000/svg" width="233" height="316" viewBox="0 0 233 316"><defs><style>@import url(https://fonts.googleapis.com/css?family=Open+Sans:bold,italic,bolditalic%7CPT+Mono);@font-face{font-family:&apos;PT Mono&apos;;font-weight:700;font-style:normal;src:local(&apos;PT MonoBold&apos;),url(/font/PTMonoBold.woff2) format(&apos;woff2&apos;),url(/font/PTMonoBold.woff) format(&apos;woff&apos;),url(/font/PTMonoBold.ttf) format(&apos;truetype&apos;)}</style></defs><g id="inheritance" fill="none" fill-rule="evenodd" stroke="none" stroke-width="1"><g id="class-inheritance-array-object.svg"><path id="Rectangle-1" fill="#FBF2EC" stroke="#DBAF88" stroke-width="2" d="M13 158h219v58H13z"/><text id="slice:-function" fill="#AF6E24" font-family="PTMono-Regular, PT Mono" font-size="14" font-weight="normal"><tspan x="23" y="181">slice: function</tspan> <tspan x="23" y="196">...</tspan></text><text id="Array.prototype" fill="#AF6E24" font-family="PTMono-Regular, PT Mono" font-size="14" font-weight="normal"><tspan x="12" y="150">Array.prototype</tspan></text><text id="arr" fill="#AF6E24" font-family="PTMono-Regular, PT Mono" font-size="14" font-weight="normal"><tspan x="12" y="267">arr</tspan></text><path id="Rectangle-1" fill="#FBF2EC" stroke="#DBAF88" stroke-width="2" d="M13 25h219v58H13z"/><text id="hasOwnProperty:-func" fill="#AF6E24" font-family="PTMono-Regular, PT Mono" font-size="14" font-weight="normal"><tspan x="23" y="48">hasOwnProperty: function</tspan> <tspan x="23" y="63">...</tspan></text><text id="Object.prototype" fill="#AF6E24" font-family="PTMono-Regular, PT Mono" font-size="14" font-weight="normal"><tspan x="12" y="17">Object.prototype</tspan></text><path id="Rectangle-1" fill="#FBF2EC" stroke="#DBAF88" stroke-width="2" d="M13 275h219v28H13z"/><path id="Line" fill="#C06334" fill-rule="nonzero" d="M72.5 224.5l7 14h-6v28h-2v-28h-6l7-14z"/><path id="Line-2" fill="#C06334" fill-rule="nonzero" d="M72.5 92.5l7 14h-6v28h-2v-28h-6l7-14z"/><text id="[1,-2,-3]" fill="#AF6E24" font-family="PTMono-Regular, PT Mono" font-size="14" font-weight="normal"><tspan x="20" y="293">[1, 2, 3]</tspan></text><text id="[[Prototype]]" fill="#C06334" font-family="PTMono-Regular, PT Mono" font-size="14" font-weight="normal"><tspan x="86" y="115">[[Prototype]]</tspan></text><text id="[[Prototype]]-Copy" fill="#C06334" font-family="PTMono-Regular, PT Mono" font-size="14" font-weight="normal"><tspan x="86" y="247">[[Prototype]]</tspan></text></g></g></svg>
